Sweet-Rainbow/icons/github-desktop.svg

<?xml version="1.0" encoding="UTF-8" standalone="no"?>
<!-- Generator: Gravit.io -->

<svg
   xmlns:dc="http://purl.org/dc/elements/1.1/"
   xmlns:cc="http://creativecommons.org/ns#"
   xmlns:rdf="http://www.w3.org/1999/02/22-rdf-syntax-ns#"
   xmlns:svg="http://www.w3.org/2000/svg"
   xmlns="http://www.w3.org/2000/svg"
   xmlns:sodipodi="http://sodipodi.sourceforge.net/DTD/sodipodi-0.dtd"
   xmlns:inkscape="http://www.inkscape.org/namespaces/inkscape"
   style="isolation:isolate"
   viewBox="0 0 36 36"
   width="48"
   height="48"
   version="1.1"
   id="svg9"
   sodipodi:docname="github-desktop.svg"
   inkscape:version="0.92.4 (5da689c313, 2019-01-14)">
  <metadata
     id="metadata15">
    <rdf:RDF>
      <cc:Work
         rdf:about="">
        <dc:format>image/svg+xml</dc:format>
        <dc:type
           rdf:resource="http://purl.org/dc/dcmitype/StillImage" />
        <dc:title></dc:title>
      </cc:Work>
    </rdf:RDF>
  </metadata>
  <defs
     id="defs13" />
  <sodipodi:namedview
     pagecolor="#ffffff"
     bordercolor="#666666"
     borderopacity="1"
     objecttolerance="10"
     gridtolerance="10"
     guidetolerance="10"
     inkscape:pageopacity="0"
     inkscape:pageshadow="2"
     inkscape:window-width="640"
     inkscape:window-height="480"
     id="namedview11"
     showgrid="false"
     inkscape:zoom="29.365243"
     inkscape:cx="25.325443"
     inkscape:cy="32"
     inkscape:current-layer="svg9"
     units="px" />
  <linearGradient
     id="_lgradient_7"
     x1="0.67180997"
     y1="0.020570019"
     x2="0.42214948"
     y2="0.96016449"
     gradientTransform="matrix(47,0,0,47.058,0.5,0.471)"
     gradientUnits="userSpaceOnUse">
    <stop
       offset="0%"
       stop-opacity="1"
       style="stop-color:rgb(26,108,255)"
       id="stop2" />
    <stop
       offset="100%"
       stop-opacity="1"
       style="stop-color:rgb(197,34,255)"
       id="stop4" />
  </linearGradient>
  <g
     id="g826"
     transform="matrix(0.76501339,0,0,0.76501339,-0.36030612,-0.36032136)">
    <path
       id="path7"
       d="m 30.003,42.269 c 2.832,-0.925 5.434,-2.512 7.583,-4.654 C 41.19,34 43.222,29.102 43.222,24 43.222,18.898 41.19,14 37.586,10.385 33.971,6.781 29.072,4.749 23.971,4.749 v 0 c -1.181,0 -2.139,-0.958 -2.139,-2.139 v 0 c 0,-1.181 0.958,-2.139 2.139,-2.139 v 0 c 6.235,0 12.224,2.481 16.641,6.888 4.407,4.417 6.888,10.406 6.888,16.641 0,6.235 -2.481,12.224 -6.888,16.641 -4.417,4.407 -10.406,6.888 -16.641,6.888 -5.936,0 -11.658,-2.246 -16.01,-6.278 C 3.608,37.208 0.945,31.668 0.506,25.754 v 0 C 0.418,24.573 1.302,23.545 2.479,23.46 v 0 c 1.178,-0.086 2.206,0.798 2.294,1.973 v 0 0 c 0.364,4.845 2.535,9.38 6.097,12.684 2.574,2.39 5.736,4.007 9.127,4.711 -0.001,-1.471 -0.003,-2.749 -0.005,-3.119 -5.265,1.178 -6.16,-2.615 -6.16,-2.615 -0.861,-2.253 -2.102,-2.854 -2.102,-2.854 -1.718,-1.209 0.129,-1.185 0.129,-1.185 1.9,0.137 2.901,2.011 2.901,2.011 1.688,2.98 4.191,2.121 5.269,1.622 0.172,-1.26 0.501,-2.123 1.041,-2.61 C 16.867,33.586 13,31.912 13,24.439 c 0,-2.128 0.186,-3.87 1.396,-5.232 -0.195,-0.493 -0.847,-2.476 0.184,-5.16 1.81,-0.085 3.409,1.896 5.02,2.654 1.731,-0.504 3.772,-0.715 5.341,-0.701 1.587,0.014 3.699,0.259 5.159,0.701 1.218,-0.855 3.081,-2.766 5.06,-2.697 l 0.305,0.043 c 1.033,2.684 0.381,4.667 0.187,5.16 1.213,1.362 1.348,3.104 1.348,5.232 0,7.493 -4.126,9.143 -8.342,9.625 0.679,0.603 1.352,1.793 1.352,3.612 0,0.802 -0.004,2.605 -0.007,4.593 z M 15.019,6.952 v 0 c 1.045,-0.549 1.448,-1.843 0.899,-2.888 v 0 C 15.369,3.02 14.075,2.617 13.03,3.166 v 0 C 8.581,5.508 4.987,9.219 2.795,13.743 v 0 c -0.52,1.063 -0.079,2.345 0.984,2.861 v 0 c 1.062,0.517 2.347,0.074 2.866,-0.989 v 0 c 1.797,-3.711 4.727,-6.738 8.374,-8.663 z"
       style="fill:url(#_lgradient_7);fill-rule:evenodd"
       inkscape:connector-curvature="0" />
  </g>
</svg>

<?xml version="1.0" encoding="UTF-8" standalone="no"?><!-- Generator: Gravit.io --><svg xmlns="http://www.w3.org/2000/svg" xmlns:xlink="http://www.w3.org/1999/xlink" style="isolation:isolate" viewBox="0 0 48 48" width="48pt" height="48pt"><linearGradient id="_lgradient_7" x1="0.6718099850460906" y1="0.020570018975650584" x2="0.4221494918345081" y2="0.9601645064179158" gradientTransform="matrix(47,0,0,47.058,0.5,0.471)" gradientUnits="userSpaceOnUse"><stop offset="0%" stop-opacity="1" style="stop-color:rgb(26,108,255)"/><stop offset="100%" stop-opacity="1" style="stop-color:rgb(197,34,255)"/></linearGradient><path d=" M 30.003 42.269 C 32.835 41.344 35.437 39.757 37.586 37.615 C 41.19 34 43.222 29.102 43.222 24 C 43.222 18.898 41.19 14 37.586 10.385 C 33.971 6.781 29.072 4.749 23.971 4.749 L 23.971 4.749 C 22.79 4.749 21.832 3.791 21.832 2.61 L 21.832 2.61 C 21.832 1.429 22.79 0.471 23.971 0.471 L 23.971 0.471 C 30.206 0.471 36.195 2.952 40.612 7.359 C 45.019 11.776 47.5 17.765 47.5 24 C 47.5 30.235 45.019 36.224 40.612 40.641 C 36.195 45.048 30.206 47.529 23.971 47.529 C 18.035 47.529 12.313 45.283 7.961 41.251 C 3.608 37.208 0.945 31.668 0.506 25.754 L 0.506 25.754 C 0.418 24.573 1.302 23.545 2.479 23.46 L 2.479 23.46 C 3.657 23.374 4.685 24.258 4.773 25.433 L 4.773 25.433 L 4.773 25.433 C 5.137 30.278 7.308 34.813 10.87 38.117 C 13.444 40.507 16.606 42.124 19.997 42.828 C 19.996 41.357 19.994 40.079 19.992 39.709 C 14.727 40.887 13.832 37.094 13.832 37.094 C 12.971 34.841 11.73 34.24 11.73 34.24 C 10.012 33.031 11.859 33.055 11.859 33.055 C 13.759 33.192 14.76 35.066 14.76 35.066 C 16.448 38.046 18.951 37.187 20.029 36.688 C 20.201 35.428 20.53 34.565 21.07 34.078 C 16.867 33.586 13 31.912 13 24.439 C 13 22.311 13.186 20.569 14.396 19.207 C 14.201 18.714 13.549 16.731 14.58 14.047 C 16.39 13.962 17.989 15.943 19.6 16.701 C 21.331 16.197 23.372 15.986 24.941 16 C 26.528 16.014 28.64 16.259 30.1 16.701 C 31.318 15.846 33.181 13.935 35.16 14.004 L 35.465 14.047 C 36.498 16.731 35.846 18.714 35.652 19.207 C 36.865 20.569 37 22.311 37 24.439 C 37 31.932 32.874 33.582 28.658 34.064 C 29.337 34.667 30.01 35.857 30.01 37.676 C 30.01 38.478 30.006 40.281 30.003 42.269 Z  M 15.019 6.952 L 15.019 6.952 C 16.064 6.403 16.467 5.109 15.918 4.064 L 15.918 4.064 C 15.369 3.02 14.075 2.617 13.03 3.166 L 13.03 3.166 C 8.581 5.508 4.987 9.219 2.795 13.743 L 2.795 13.743 C 2.275 14.806 2.716 16.088 3.779 16.604 L 3.779 16.604 C 4.841 17.121 6.126 16.678 6.645 15.615 L 6.645 15.615 C 8.442 11.904 11.372 8.877 15.019 6.952 L 15.019 6.952 Z " fill-rule="evenodd" fill="url(#_lgradient_7)"/></svg>
